src/app/assets/images/error-small.svg

<svg width="88" height="88" viewBox="0 0 88 88" fill="none" xmlns="http://www.w3.org/2000/svg" id="error-small">
<g id="Frame 1459">
<g id="Group 1343">
<circle id="&#208;&#173;&#208;&#187;&#208;&#187;&#208;&#184;&#208;&#191;&#209;&#129; 2047 &#208;&#186;&#208;&#190;&#208;&#191;&#208;&#184;&#209;&#143; 4" cx="43.9492" cy="44.5586" r="31.5" stroke="#DE5846" stroke-width="2"/>
<circle id="&#208;&#173;&#208;&#187;&#208;&#187;&#208;&#184;&#208;&#191;&#209;&#129; 2047 &#208;&#186;&#208;&#190;&#208;&#191;&#208;&#184;&#209;&#143; 5" cx="43.9375" cy="44.5" r="27.5" fill="#DE5846" fill-opacity="0.2"/>
<path id="&#208;&#159;&#209;&#128;&#209;&#143;&#208;&#188;&#208;&#190;&#209;&#131;&#208;&#179;&#208;&#190;&#208;&#187;&#209;&#140;&#208;&#189;&#208;&#184;&#208;&#186;, &#209;&#129;&#208;&#186;&#209;&#128;&#209;&#131;&#208;&#179;&#208;&#187;. &#209;&#131;&#208;&#179;&#208;&#187;&#209;&#139;2086 &#208;&#186;&#208;&#190;&#208;&#191;&#208;&#184;&#209;&#143;" d="M43.937 51.3249L50.3871 57.788C51.1935 58.5959 52.2505 59 53.3075 59C54.3645 59 55.4215 58.5959 56.2279 57.788C57.8407 56.1721 57.8407 53.5519 56.2279 51.936L49.7771 45.4736L56.1762 39.0622C57.789 37.4463 57.789 34.8278 56.1762 33.2119C54.5635 31.596 51.9484 31.596 50.3355 33.2119C50.3355 33.2119 49.9821 33.5661 49.549 34M43.937 39.6227L37.5379 33.2119C35.9251 31.596 33.3116 31.596 31.6987 33.2119C30.0859 34.8278 30.0859 37.4463 31.6987 39.0622L38.0973 45.4736L31.647 51.936C30.0343 53.5519 30.0343 56.1721 31.647 57.788C33.2599 59.4039 35.875 59.4039 37.4862 57.788L38.2727 57M47.3083 36.245L45.6226 37.9339M41.7661 53.5L40.1661 55.103" stroke="#DE5846" stroke-width="2" stroke-linecap="round"/>
</g>
</g>
</svg>

<svg id="error-small" viewBox="0 0 89 89" fill="none" xmlns="http://www.w3.org/2000/svg"><path d="M87.45 44.059c0 23.748-19.252 43-43 43-4.902 0-9.612-.82-14-2.33m55.83-50.67a42.664 42.664 0 0 0-1.906-6m-4.24-8c-7.724-11.462-20.824-19-35.685-19-23.748 0-43 19.251-43 43 0 8.46 2.443 16.348 6.662 23m13.338 13.338a43.209 43.209 0 0 1-8.285-6.838" stroke="#3C4249" stroke-width="2" stroke-linecap="round"/><circle cx="43.949" cy="44.559" r="31.5" stroke="#DE5846" stroke-width="2"/><circle cx="43.938" cy="44.5" r="27.5" fill="#391919"/><path d="M43.937 51.325l6.45 6.463A4.113 4.113 0 0 0 53.307 59a4.113 4.113 0 0 0 2.92-1.212 4.144 4.144 0 0 0 0-5.852l-6.45-6.462 6.4-6.412a4.142 4.142 0 0 0 0-5.85 4.125 4.125 0 0 0-5.841 0l-.787.788m-5.612 5.623l-6.4-6.411a4.123 4.123 0 0 0-5.838 0 4.142 4.142 0 0 0 0 5.85l6.398 6.412-6.45 6.462a4.144 4.144 0 0 0 0 5.852 4.123 4.123 0 0 0 5.84 0l.786-.788m9.035-20.755l-1.685 1.689M41.766 53.5l-1.6 1.603" stroke="#DE5846" stroke-width="2" stroke-linecap="round"/></svg>
